X: 08100
T: Opera Reel
B: Henry Ford's "Good Morning"
Z: 2011 John Chambers <jc:trillian.mit.edu>
R: reel
M: 2/4
L: 1/16
K: D
|: "D"[d2A2F2][d2A2F2] "A7"fafa | "D"[d2A2F2][d2A2F2] "A7"edef |\
   "D"[d2A2F2][d2A2F2] fafa | "G"bd'"D"af "A7"[e2c2G2][e2c2G2] :|
|: "D"[d2A2F2][d2A2F2] dAFA | "D"[d2A2F2][d2A2F2] "A7"efge |\
   "D"[d2A2F2][d2A2F2] dAFA | "G"Bd"D"AF "A7"[E2C2][E2C2] :|
|: "D"afaf "A7"gege | "D"faed "A7"cBA2 |\
   "D"afaf "A7"gege | "D"fa"A7"ec "D"[d2A2F2][d2A2F2] :|
|: "D"[d2A2F2]fd "A7"efge | "D"[d2A2F2]fd "A7"edcA |\
   "D"[d2A2F2]fd "A7"efge | "D"fa"A7"ec "D"[d2A2F2][d2A2F2] :|
